!!!COM: Palestrina, Giovanni Perluigi da
!!!OPR: Missa Papae Marcelli
!!!OTL: Agnus II
**kern	**kern	**kern	**kern	**kern	**kern	**kern
*Ibass	*Ibass	*Itenor	*Icalto	*Icalto	*Icant	*Icant
!Bassus 2	!Bassus 1	!Tenor	!Altus 2	!Altus 1	!Cantus 2	!Cantus 1
*clefF4	*clefF4	*clefGv2	*clefG2	*clefG2	*clefG2	*clefG2
*k[]	*k[]	*k[]	*k[]	*k[]	*k[]	*k[]
*C:ion	*C:ion	*C:ion	*C:ion	*C:ion	*C:ion	*C:ion
*M4/2	*M4/2	*M4/2	*M4/2	*M4/2	*M4/2	*M4/2
=1	=1	=1	=1	=1	=1	=1
0r	0G	0d	0r	1r	0r	0b
.	.	.	.	[1g	.	.
=2	=2	=2	=2	=2	=2	=2
0r	1G	1d	0r	1g]	0r	1b
.	[1c	2.e	.	1g	.	2.cc
.	.	4f	.	.	.	4dd
=3	=3	=3	=3	=3	=3	=3
0r	2c]	1g	0r	2c	0r	2ee
.	2B	.	.	2d	.	2.dd
.	1A	1c	.	2e	.	.
.	.	.	.	.	.	4cc
.	.	.	.	2f#	.	[2cc
=4	=4	=4	=4	=4	=4	=4
1r	0G	1d	0d	0g	0r	2cc]
.	.	.	.	.	.	4b
.	.	.	.	.	.	4a
[1G	.	2G	.	.	.	2.b
.	.	[2B	.	.	.	.
.	.	.	.	.	.	4cc
=5	=5	=5	=5	=5	=5	=5
1G]	2.B	4B]	1d	2.g	0r	2dd
.	.	4c	.	.	.	.
.	.	2d	.	.	.	4g
.	4c	.	.	8f	.	4a
.	.	.	.	8e	.	.
1G	2d	2B	[1g	2d	.	4b
.	.	.	.	.	.	4cc
.	2B	[2G	.	2g	.	2dd
=6	=6	=6	=6	=6	=6	=6
2C	2c	2G]	2g]	2e	0r	2ee
2D	2A	2d	2f	2a	.	2ff
2E	1G	2B	1e	1g	.	[1gg
2C	.	2c	.	.	.	.
=7	=7	=7	=7	=7	=7	=7
[0D	1r	2A	0d	2r	0a	2gg]
.	.	1d	.	1a	.	4ff
.	.	.	.	.	.	4ee
.	[1d	.	.	.	.	2.ff
.	.	[2f	.	[2d	.	.
.	.	.	.	.	.	4ee
=8	=8	=8	=8	=8	=8	=8
0D]	1d]	4f]	2.f	2d]	1a	4dd
.	.	4g	.	.	.	4cc#
.	.	2a	.	2.f	.	2.dd
.	.	.	4g	.	.	.
.	1d	2.f	2a	.	[1dd	.
.	.	.	.	4g	.	4cc
.	.	.	2f	2a	.	2a
.	.	4e	.	.	.	.
=9	=9	=9	=9	=9	=9	=9
0r	2G	2d	2g	2g	2dd]	2b
.	2A	2a	2e	2c	2cc	2cc
.	2B	2.g	1d	2r	1b	1dd
.	2G	.	.	[2d	.	.
.	.	4f	.	.	.	.
=10	=10	=10	=10	=10	=10	=10
2r	1A	1e	1r	2d]	0a	2r
2A	.	.	.	2c#	.	2ee
4D	1r	1d	[1a	1d	.	1ff
4E	.	.	.	.	.	.
4F	.	.	.	.	.	.
4G	.	.	.	.	.	.
=11	=11	=11	=11	=11	=11	=11
0A	0r	2r	1a]	2c	2.cc	2.ee
.	.	2e	.	4A	.	.
.	.	.	.	4B	4dd	4dd
.	.	2A	1a	4c	2ee	4cc
.	.	.	.	4d	.	4b
.	.	2c	.	4e	2cc	2a
.	.	.	.	4c	.	.
=12	=12	=12	=12	=12	=12	=12
1G	0r	2B	2d	1g	2dd	2.b
.	.	2G	2e	.	2b	.
.	.	.	.	.	.	4cc
1D	.	2.A	2f	2.f	1a	4dd
.	.	.	.	.	.	4ee
.	.	.	2d	.	.	2ff
.	.	4B	.	4g	.	.
=13	=13	=13	=13	=13	=13	=13
1A	2r	4c	1e	2a	1r	0ee
.	.	4d	.	.	.	.
.	2c	2e	.	2e	.	.
2r	1c	1A	1r	1e	[1ee	.
2c	.	.	.	.	.	.
=14	=14	=14	=14	=14	=14	=14
1c	2A	2r	0r	2c	1ee]	0r
.	2A	2e	.	1A	.	.
1A	4c	1e	.	.	1ee	.
.	4B	.	.	.	.	.
.	4A	.	.	[2a	.	.
.	4G	.	.	.	.	.
=15	=15	=15	=15	=15	=15	=15
1r	2F	2f	0r	2a]	2a	0r
.	2G	2d	.	1g	2b	.
2r	1A	1c	.	.	2cc	.
2c	.	.	.	2f#	2a	.
=16	=16	=16	=16	=16	=16	=16
2B	1G	1d	2r	1g	1b	1r
2G	.	.	2g	.	.	.
1c	1r	1e	1g	2r	1r	2r
.	.	.	.	2c	.	2gg
=17	=17	=17	=17	=17	=17	=17
1C	0r	2e	2e	2.c	0r	1gg
.	.	2c	2e	.	.	.
.	.	.	.	4d	.	.
2r	.	2.c	4g	4e	.	2ee
.	.	.	4f	4f	.	.
2c	.	.	4e	[2g	.	2ee
.	.	4d	4d	.	.	.
=18	=18	=18	=18	=18	=18	=18
2c	0r	4e	2c	2g]	0r	2.gg
.	.	4f	.	.	.	.
2B	.	1g	2d	2G	.	.
.	.	.	.	.	.	4ff
1c	.	.	1e	[1g	.	4ee
.	.	.	.	.	.	4dd
.	.	2e	.	.	.	[2cc
=19	=19	=19	=19	=19	=19	=19
[0G	1r	1.g	1d	2g]	2r	2cc]
.	.	.	.	4f	2dd	4b
.	.	.	.	4e	.	4a
.	2r	.	1r	1d	1dd	2.b
.	2d	4f	.	.	.	.
.	.	4e	.	.	.	4cc
=20	=20	=20	=20	=20	=20	=20
1G]	1d	4d	0r	0g	2b	0dd
.	.	4c	.	.	.	.
.	.	4B	.	.	2b	.
.	.	4A	.	.	.	.
2r	2B	2.G	.	.	4dd	.
.	.	.	.	.	4cc	.
2G	2B	.	.	.	4b	.
.	.	4A	.	.	4a	.
=21	=21	=21	=21	=21	=21	=21
2G	2.d	2B	0r	2r	2g	1dd
2F#	.	2G	.	2.d	2a	.
.	4c	.	.	.	.	.
1G	2B	[1d	.	.	1b	2.dd
.	.	.	.	4c	.	.
.	2G	.	.	4d	.	.
.	.	.	.	4e	.	4cc
=22	=22	=22	=22	=22	=22	=22
1D	2.A	1d]	1r	4f	1a	4dd
.	.	.	.	4g	.	4ee
.	.	.	.	2.a	.	2ff
.	4B	.	.	.	.	.
1r	2c	2r	2r	.	1r	2ee
.	.	.	.	4g	.	.
.	2d	2d	2a	2f	.	[2dd
=23	=23	=23	=23	=23	=23	=23
1r	1A	2e	1a	1e	0r	2dd]
.	.	1A	.	.	.	2cc#
1D	1r	.	2f	1d	.	1dd
.	.	[2d	2f	.	.	.
=24	=24	=24	=24	=24	=24	=24
1F	0r	4d]	2.a	2r	0r	0r
.	.	4c	.	.	.	.
.	.	1c	.	2a	.	.
.	.	.	4g	.	.	.
1D	.	.	2f	2a	.	.
.	.	2B	2d	2f	.	.
=25	=25	=25	=25	=25	=25	=25
2A	0r	0c	2.e	2a	1r	2r
2.c	.	.	.	2g	.	2ee
.	.	.	4f	.	.	.
.	.	.	2g	[1e	2r	1ee
4B	.	.	.	.	.	.
4A	.	.	2a	.	2ee	.
4G	.	.	.	.	.	.
=26	=26	=26	=26	=26	=26	=26
1A	0r	2r	1e	2e]	1ee	2cc
.	.	2e	.	2.cc	.	2cc
[1A	.	2e	1r	.	2cc	2.ee
.	.	.	.	4b	.	.
.	.	[2c	.	[2a	2cc	.
.	.	.	.	.	.	4dd
=27	=27	=27	=27	=27	=27	=27
2A]	0r	2c]	0r	2a]	2.ee	2cc
2E	.	2.e	.	1g	.	2b
.	.	.	.	.	4dd	.
1A	.	.	.	.	2cc	1a
.	.	4d	.	.	.	.
.	.	2c	.	2f#	2a	.
=28	=28	=28	=28	=28	=28	=28
0G	2r	2.B	0r	[0g	2.b	1dd
.	1G	.	.	.	.	.
.	.	4A	.	.	4cc	.
.	.	2B	.	.	2dd	2r
.	2C	2c	.	.	2ee	[2gg
=29	=29	=29	=29	=29	=29	=29
2r	2.G	1d	0r	1g]	1b	2gg]
1G	.	.	.	.	.	2g
.	4A	.	.	.	.	.
.	2B	1G	.	1r	1r	2dd
2C	[2c	.	.	.	.	2ee
=30	=30	=30	=30	=30	=30	=30
1G	2c]	2r	0r	1g	0r	1dd
.	2B	1g	.	.	.	.
2A	1A	.	.	1c	.	1cc
[2c	.	2f	.	.	.	.
=31	=31	=31	=31	=31	=31	=31
2c]	0G	2e	2r	1g	0r	1r
4B	.	2d	1d	.	.	.
4A	.	.	.	.	.	.
1B	.	[1g	.	2d	.	2r
.	.	.	2G	[2g	.	[2dd
=32	=32	=32	=32	=32	=32	=32
1G	2r	1g]	2.d	4g]	0r	2dd]
.	.	.	.	4a	.	.
.	1d	.	.	4b	.	2g
.	.	.	4e	4g	.	.
1r	.	1d	2f#	2a	.	1dd
.	2G	.	[2g	2b	.	.
=33	=33	=33	=33	=33	=33	=33
1r	2c	2r	2g]	2cc	0r	2ee
.	2d	1a	2f	2a	.	2.dd
1A	1A	.	1e	2r	.	.
.	.	.	.	.	.	8cc
.	.	.	.	.	.	8b
.	.	2e	.	[2a	.	2cc#
=34	=34	=34	=34	=34	=34	=34
2D	1d	2f	0d	2a]	2r	0dd
2.d	.	2f	.	2d	1a	.
.	1r	1d	.	2a	.	.
4c	.	.	.	.	.	.
2B	.	.	.	2b	2d	.
=35	=35	=35	=35	=35	=35	=35
1A	0r	1e	2r	1.cc	2.a	2r
.	.	.	1a	.	.	1ee
.	.	.	.	.	4b	.
1r	.	1r	.	.	2cc	.
.	.	.	2d	4b	[2dd	2ff#
.	.	.	.	4a	.	.
=36	=36	=36	=36	=36	=36	=36
0r	0r	1r	2g	2b	2dd]	2gg
.	.	.	2a	1a	2cc	2ee
.	.	2r	1e	.	1b	1ee
.	.	[2e	.	2g	.	.
=37	=37	=37	=37	=37	=37	=37
1.A	0r	2e]	1a	2.cc	0a	1ee
.	.	2A	.	.	.	.
.	.	.	.	4b	.	.
.	.	2c	1r	4a	.	2r
.	.	.	.	4g	.	.
2D	.	2d	.	2f	.	2dd
=38	=38	=38	=38	=38	=38	=38
2.A	0r	2.c	0r	2e	2r	4ee
.	.	.	.	.	.	4dd
.	.	.	.	2.a	1ee	4cc
4B	.	4d	.	.	.	4b
2c	.	2e	.	.	.	1a
.	.	.	.	4g	.	.
2d	.	2f	.	4f	2a	.
.	.	.	.	4e	.	.
=39	=39	=39	=39	=39	=39	=39
2B	0r	0g	0r	2d	2dd	2b
2c	.	.	.	2c	2ee	2g
1G	.	.	.	2d	1b	1dd
.	.	.	.	[2g	.	.
=40	=40	=40	=40	=40	=40	=40
1C	1.c	2r	0r	2g]	1ee	1cc
.	.	1g	.	2c	.	.
[1c	.	.	.	2e	1r	2r
.	2F	2f	.	2f	.	4cc
.	.	.	.	.	.	4dd
=41	=41	=41	=41	=41	=41	=41
2c]	1c	1.e	0r	2.g	0r	4ee
.	.	.	.	.	.	4ff
2C	.	.	.	.	.	1gg
.	.	.	.	4f	.	.
2E	2B	.	.	2g	.	.
2F	[2d	4d	.	[2a	.	4ff
.	.	4c	.	.	.	4ee
=42	=42	=42	=42	=42	=42	=42
1G	4d]	2B	0r	2a]	0r	1dd
.	4c	.	.	.	.	.
.	1B	2G	.	1g	.	.
1D	.	[1d	.	.	.	2dd
.	2A	.	.	2f#	.	[2dd
=43	=43	=43	=43	=43	=43	=43
1G	1B	1d]	1.g	1g	0r	2dd]
.	.	.	.	.	.	2g
1C	2r	[1e	.	2r	.	2.gg
.	[2c	.	2c	[2g	.	.
.	.	.	.	.	.	4ff
=44	=44	=44	=44	=44	=44	=44
1E	2c]	1e]	1g	4g]	0r	4ee
.	.	.	.	4f	.	4dd
.	2G	.	.	4e	.	4cc
.	.	.	.	4d	.	4b
[1F	1A	2r	2f	2c	.	2.a
.	.	[2c	[2a	2A	.	.
.	.	.	.	.	.	4b
=45	=45	=45	=45	=45	=45	=45
1F]	4F	2c]	4a]	1a	0r	1cc
.	4G	.	4g	.	.	.
.	4A	2.c	1f	.	.	.
.	4B	.	.	.	.	.
1C	1c	.	.	1g	.	1cc
.	.	4d	.	.	.	.
.	.	2e	2e	.	.	.
=46	=46	=46	=46	=46	=46	=46
1D	2A	2.d	1f	2f	1.dd	2r
.	1d	.	.	2a	.	2a
.	.	4c	.	.	.	.
1r	.	2B	2r	[1g	.	2b
.	[2c	2e	[2g	.	2g	2cc
=47	=47	=47	=47	=47	=47	=47
1G	2c]	1d	2g]	1g]	1dd	2dd
.	2B	.	2d	.	.	2g
2.c	2.A	2r	1e	1r	2cc	4a
.	.	.	.	.	.	4b
.	.	[2c	.	.	[2ee	4cc
4B	4B	.	.	.	.	4dd
=48	=48	=48	=48	=48	=48	=48
1A	1c	2c]	4c	1r	4ee]	1ee
.	.	.	4d	.	4dd	.
.	.	2A	4e	.	1cc	.
.	.	.	4f	.	.	.
1G	1d	2B-	1g	2r	.	2r
.	.	[2G	.	[2g	2b	2dd
=49	=49	=49	=49	=49	=49	=49
2C	0c	2G]	2e	2g]	[0cc	2ee
1F	.	4F	1a	2c	.	4a
.	.	4G	.	.	.	4b
.	.	4A	.	2f	.	4cc
.	.	4F	.	.	.	4dd
2E	.	2c	[2g	2g	.	2ee
=50	=50	=50	=50	=50	=50	=50
1F	2r	1A	2g]	1a	1cc_	2cc
.	1c	.	2f	.	.	4a
.	.	.	.	.	.	4b
[1C	.	2r	2.e	2.g	1cc_	4cc
.	.	.	.	.	.	4dd
.	2c	[2G	.	.	.	[2ee
.	.	.	4f	4f	.	.
=51	=51	=51	=51	=51	=51	=51
1C]	2.c	2G]	1g	4e	0cc]	4ee]
.	.	.	.	4d	.	4ff
.	.	1c	.	2e	.	4gg
.	4B	.	.	.	.	4ee
1F	2A	.	1a	2.c	.	1ff
.	2F	2c	.	.	.	.
.	.	.	.	4d	.	.
=52	=52	=52	=52	=52	=52	=52
[0C	[0G	[0c	[0g	[0e	[0cc	[0ee
=53	=53	=53	=53	=53	=53	=53
1C_	1G_	1c_	1g_	1e_	1cc_	1ee_
1C_	1G_	1c_	1g_	1e_	1cc_	1ee_
=54	=54	=54	=54	=54	=54	=54
0C]	0G]	0c]	0g]	0e]	0cc]	0ee]
==	==	==	==	==	==	==
*-	*-	*-	*-	*-	*-	*-
!!!CDT: 1525/^1526/-1594/2/2
!!!OCY: Italia
!!!AGN: Mass (Free)
!!!AST: renaissance, vocal
!!!ASW: Chanson 1533 (Lupi or Cadéac)
!!!PWK: Masses, Book 2
!!!RNB: Cadence finals: G
!!!YOR: Le Opere Complete, v. 4, p. 167
!!!YOO: Rome, Italy: Fratelli Scalera
!!!END: 1992//
!!!EED: John Miller
!!!YEC: Copyright 2000, John Miller
!!!YEN: United States of America
!!!YEM: Rights to all derivative electronic formats reserved.
!!!YEM: Refer to licensing agreement for further details.
!!!YEM: This file must be accompanied by the licensing agreement.
!!!YEM: A copy of the licensing agreement may be found at http://www.music-cog.ohio-state.edu/HumdrumDatabases/Palestrina/license.txt
!!!EMD: converted to Humdrum by Bret Aarden
